humanity-icon-theme/Humanity/devices/24/input-mouse.svg

<?xml version="1.0" encoding="UTF-8" standalone="no"?>
<!-- Created with Inkscape (http://www.inkscape.org/) -->

<svg
   xmlns:svg="http://www.w3.org/2000/svg"
   xmlns="http://www.w3.org/2000/svg"
   xmlns:xlink="http://www.w3.org/1999/xlink"
   version="1.0"
   width="24"
   height="24"
   id="svg2">
  <defs
     id="defs4">
    <linearGradient
       id="linearGradient4190">
      <stop
         id="stop4192"
         style="stop-color:black;stop-opacity:1"
         offset="0" />
      <stop
         id="stop4194"
         style="stop-color:black;stop-opacity:0"
         offset="1" />
    </linearGradient>
    <linearGradient
       id="linearGradient6967">
      <stop
         id="stop6969"
         style="stop-color:white;stop-opacity:1"
         offset="0" />
      <stop
         id="stop6971"
         style="stop-color:white;stop-opacity:0"
         offset="1" />
    </linearGradient>
    <linearGradient
       id="linearGradient6544">
      <stop
         id="stop6546"
         style="stop-color:#fafafa;stop-opacity:1"
         offset="0" />
      <stop
         id="stop6548"
         style="stop-color:#c8c8c8;stop-opacity:1"
         offset="1" />
    </linearGradient>
    <linearGradient
       id="linearGradient4574">
      <stop
         id="stop4576"
         style="stop-color:#828282;stop-opacity:1"
         offset="0" />
      <stop
         id="stop4578"
         style="stop-color:#646662;stop-opacity:1"
         offset="1" />
    </linearGradient>
    <linearGradient
       id="linearGradient7603">
      <stop
         id="stop7605"
         style="stop-color:#a0a0a0;stop-opacity:1"
         offset="0" />
      <stop
         id="stop7607"
         style="stop-color:#5a5a5a;stop-opacity:1"
         offset="1" />
    </linearGradient>
    <radialGradient
       cx="23.527729"
       cy="10.895145"
       r="2.5"
       fx="23.527729"
       fy="10.895145"
       id="radialGradient4143"
       xlink:href="#linearGradient4574"
       gradientUnits="userSpaceOnUse"
       gradientTransform="matrix(1.0416813,-1.5799253e-7,3.3209072e-7,1.178072,-13.237601,-8.0265113)" />
    <radialGradient
       cx="16.184446"
       cy="16.53931"
       r="13.477376"
       fx="16.184446"
       fy="16.53931"
       id="radialGradient4172"
       xlink:href="#linearGradient6544"
       gradientUnits="userSpaceOnUse"
       gradientTransform="matrix(2.4961873,-0.05196668,0.03495209,1.3187071,-33.81765,-14.923722)" />
    <linearGradient
       x1="24.559448"
       y1="3"
       x2="24.5"
       y2="45"
       id="linearGradient4174"
       xlink:href="#linearGradient7603"
       gradientUnits="userSpaceOnUse"
       gradientTransform="matrix(0.57792838,0,0,0.51219512,-2.1936084,-0.292683)" />
    <linearGradient
       x1="23.823223"
       y1="4.1102042"
       x2="24.558723"
       y2="44"
       id="linearGradient4188"
       xlink:href="#linearGradient6967"
       gradientUnits="userSpaceOnUse"
       gradientTransform="matrix(0.54953648,0,0,0.48717913,-1.5758509,0.30769393)" />
    <linearGradient
       x1="16"
       y1="33"
       x2="13"
       y2="34"
       id="linearGradient4198"
       xlink:href="#linearGradient4190"
       gradientUnits="userSpaceOnUse"
       gradientTransform="matrix(1.0158471,0,0,0.54829907,-8.2510628,-1.2061129)" />
    <linearGradient
       x1="32.989716"
       y1="33.049999"
       x2="36"
       y2="34"
       id="linearGradient4206"
       xlink:href="#linearGradient4190"
       gradientUnits="userSpaceOnUse"
       gradientTransform="matrix(1.014128,0,0,0.54902599,-17.466225,-1.2355532)" />
    <radialGradient
       cx="4.6021867"
       cy="34.157486"
       r="8.3414631"
       fx="4.6021867"
       fy="34.157486"
       id="radialGradient3626"
       xlink:href="#linearGradient4190"
       gradientUnits="userSpaceOnUse"
       gradientTransform="matrix(1.0789474,0,0,0.35964913,7.0344826,8.7164756)" />
  </defs>
  <path
     d="m 20.999999,21.001183 a 9,3 0 0 1 -17.9999986,0 9,3 0 1 1 17.9999986,0 z"
     id="path3616"
     style="opacity:0.5;fill:url(#radialGradient3626);fill-opacity:1;stroke:none" />
  <path
     d="M 12.019818,1.5 C 9.49495,1.5 6.959141,2.010823 5.770967,3.020579 3.96792,6.39164 4.551764,9.519669 4.684,12.768293 c -0.064305,1.536585 -0.2482717,3.073171 0,4.609756 C 4.92927,20.238259 8.391734,22.5 11.983702,22.5 15.57567,22.5 19.119725,20.238259 19.365,17.378049 19.533767,16.53125 19.532004,15 19.365,12.880335 19.424107,9 20.07476,6.431073 18.250621,3.020579 17.062435,2.010823 14.544685,1.5 12.019818,1.5 z"
     id="path3068"
     style="fill:url(#radialGradient4172);fill-opacity:1;stroke:url(#linearGradient4174);stroke-width:1;stroke-opacity:1" />
  <g
     transform="translate(0,-24)"
     id="layer3"
     style="display:inline" />
  <path
     d="M 11.939312,2.5 C 9.6736216,2.5 7.4194031,3.0126302 6.46112,3.7636208 5,7 5.5827697,9.6236683 5.772,12.624192 c 0.0026,0.04128 1.59e-4,0.08077 0,0.121794 -0.094269,2.209511 -0.3517101,2.201474 -0.109,4.232369 0.7187378,3.134384 3.3739856,3.998122 6.241957,4.521645 3.158257,0 6.179989,-1.964865 6.390043,-4.415062 0.268652,-1.399185 0.08376,-2.821174 0.026,-4.23237 -1.57e-4,-0.04103 -0.0048,-0.0807 0,-0.121794 C 18.639161,10 19,7 17.400344,3.7636303 16.441037,3.0111378 14.205015,2.5000095 11.939325,2.5000095 L 11.939312,2.5 z"
     id="path4184"
     style="opacity:0.7;fill:none;stroke:url(#linearGradient4188);stroke-width:1;stroke-opacity:1" />
  <rect
     width="3"
     height="4.9512196"
     rx="1.5"
     ry="1.5"
     x="10.5"
     y="3.5487804"
     id="rect3845"
     style="fill:url(#radialGradient4143);fill-opacity:1;stroke:#5a5a5a;stroke-width:0.99999994;stroke-linecap:round;stroke-linejoin:round;stroke-miterlimit:4;stroke-opacity:1;stroke-dasharray:none" />
  <path
     d="M 18.839557,12.819512 C 17.793737,15.267738 16,17.980356 16,21 c 0.991717,-0.653693 3.19925,-1.372565 3.042384,-5.764773 l -0.202827,-2.415715 z"
     id="path4161"
     style="opacity:0.5;fill:url(#linearGradient4206);fill-opacity:1;stroke:none" />
  <path
     d="M 5.1556272,12.665854 C 6.2032201,15.110837 8.002489,17.984354 8,21 7.0065982,20.347172 4.795326,19.629252 4.9524572,15.24286 l 0.20317,-2.577006 z"
     id="path4164"
     style="opacity:0.5;fill:url(#linearGradient4198);fill-opacity:1;stroke:none" />
</svg>

<?xml version="1.0" encoding="UTF-8" standalone="no"?>
<!-- Created with Inkscape (http://www.inkscape.org/) -->
<svg id="svg2" xmlns="http://www.w3.org/2000/svg" height="24" width="24" version="1.0" xmlns:xlink="http://www.w3.org/1999/xlink">
 <defs id="defs4">
  <linearGradient id="linearGradient4190">
   <stop id="stop4192" offset="0"/>
   <stop id="stop4194" style="stop-opacity:0" offset="1"/>
  </linearGradient>
  <radialGradient id="radialGradient4143" gradientUnits="userSpaceOnUse" cy="10.895" cx="23.528" gradientTransform="matrix(1.0417 -1.5799e-7 3.3209e-7 1.1781 -13.238 -8.0265)" r="2.5">
   <stop id="stop4576" style="stop-color:#828282" offset="0"/>
   <stop id="stop4578" style="stop-color:#646662" offset="1"/>
  </radialGradient>
  <radialGradient id="radialGradient4172" gradientUnits="userSpaceOnUse" cy="16.539" cx="16.184" gradientTransform="matrix(2.4962 -.051967 .034952 1.3187 -33.818 -14.924)" r="13.477">
   <stop id="stop6546" style="stop-color:#fafafa" offset="0"/>
   <stop id="stop6548" style="stop-color:#c8c8c8" offset="1"/>
  </radialGradient>
  <linearGradient id="linearGradient4174" y2="45" gradientUnits="userSpaceOnUse" x2="24.5" gradientTransform="matrix(.57793 0 0 .51220 -2.1936 -.29268)" y1="3" x1="24.559">
   <stop id="stop7605" style="stop-color:#a0a0a0" offset="0"/>
   <stop id="stop7607" style="stop-color:#5a5a5a" offset="1"/>
  </linearGradient>
  <linearGradient id="linearGradient4188" y2="44" gradientUnits="userSpaceOnUse" x2="24.559" gradientTransform="matrix(.54954 0 0 .48718 -1.5759 .30769)" y1="4.1102" x1="23.823">
   <stop id="stop6969" style="stop-color:#fff" offset="0"/>
   <stop id="stop6971" style="stop-color:#fff;stop-opacity:0" offset="1"/>
  </linearGradient>
  <linearGradient id="linearGradient4198" y2="34" xlink:href="#linearGradient4190" gradientUnits="userSpaceOnUse" x2="13" gradientTransform="matrix(1.0158 0 0 .54830 -8.2511 -1.2061)" y1="33" x1="16"/>
  <linearGradient id="linearGradient4206" y2="34" xlink:href="#linearGradient4190" gradientUnits="userSpaceOnUse" x2="36" gradientTransform="matrix(1.0141 0 0 .54903 -17.466 -1.2356)" y1="33.05" x1="32.99"/>
  <radialGradient id="radialGradient3626" xlink:href="#linearGradient4190" gradientUnits="userSpaceOnUse" cy="34.157" cx="4.6022" gradientTransform="matrix(1.0789 0 0 .35965 7.0345 8.7165)" r="8.3415"/>
 </defs>
 <path id="path3616" style="opacity:.5;fill:url(#radialGradient3626)" d="m21 21.001a9 3 0 0 1 -18 0 9 3 0 1 1 18 0z"/>
 <path id="path3068" style="stroke:url(#linearGradient4174);fill:url(#radialGradient4172)" d="m12.02 1.5c-2.525 0-5.0609 0.5108-6.249 1.5206-1.8031 3.371-1.2192 6.4991-1.087 9.7474-0.064305 1.5366-0.24827 3.0732 0 4.6098 0.2453 2.86 3.7077 5.122 7.3 5.122 3.592 0 7.136-2.262 7.381-5.122 0.169-0.847 0.167-2.378 0-4.498 0.059-3.88 0.71-6.4489-1.114-9.8594-1.189-1.0098-3.706-1.5206-6.231-1.5206z"/>
 <path id="path4184" style="opacity:.7;stroke:url(#linearGradient4188);fill:none" d="m11.939 2.5c-2.2654 0-4.5196 0.5126-5.4779 1.2636-1.4611 3.2364-0.8783 5.8601-0.6891 8.8604 0.0026 0.04128 0.000159 0.08077 0 0.12179-0.094269 2.2095-0.35171 2.2015-0.109 4.2324 0.71874 3.1344 3.374 3.9981 6.242 4.5216 3.1583 0 6.18-1.9649 6.39-4.4151 0.26865-1.3992 0.08376-2.8212 0.026-4.2324-0.000157-0.04103-0.0048-0.0807 0-0.12179 0.318-2.731 0.679-5.731-0.921-8.9674-0.959-0.7525-3.195-1.2636-5.461-1.2636z"/>
 <rect id="rect3845" style="stroke-linejoin:round;stroke:#5a5a5a;stroke-linecap:round;fill:url(#radialGradient4143)" rx="1.5" ry="1.5" height="4.9512" width="3" y="3.5488" x="10.5"/>
 <path id="path4161" style="opacity:.5;fill:url(#linearGradient4206)" d="m18.84 12.82c-1.046 2.448-2.84 5.16-2.84 8.18 0.99172-0.65369 3.1992-1.3726 3.0424-5.7648l-0.20283-2.4157z"/>
 <path id="path4164" style="opacity:.5;fill:url(#linearGradient4198)" d="m5.1556 12.666c1.0476 2.445 2.8469 5.318 2.8444 8.334-0.9934-0.653-3.2047-1.371-3.0475-5.757l0.20317-2.577z"/>
</svg>
